resources/svg/wallet.svg

<svg width="15" height="15" viewBox="0 0 15 15" fill="none" xmlns="http://www.w3.org/2000/svg">
<path fill-rule="evenodd" clip-rule="evenodd" d="M0 2.5C0 1.67157 0.671573 1 1.5 1H9.5C10.3284 1 11 1.67157 11 2.5V3L13.5 3C14.3284 3 15 3.67157 15 4.5V12.5C15 13.3284 14.3284 14 13.5 14L1.5 14C0.671573 14 0 13.3284 0 12.5V2.5ZM9 10H12V9H9V10Z" fill="black"/>
</svg>

<svg viewBox="0 0 15 15" fill="none" xmlns="http://www.w3.org/2000/svg" fill="currentColor"><path fill-rule="evenodd" clip-rule="evenodd" d="M0 2.5A1.5 1.5 0 011.5 1h8A1.5 1.5 0 0111 2.5V3h2.5A1.5 1.5 0 0115 4.5v8a1.5 1.5 0 01-1.5 1.5h-12A1.5 1.5 0 010 12.5v-10zM9 10h3V9H9v1z" fill="currentColor"/></svg>
